X:193
T:Miss Patterson
R:Reel
O:Ireland
B:O'Neill's 1407
B:Krassen O'Neill's
B:Ceol Rince 3 n180
S:O'Neill's 1407
Z:Transcription:Bob Safranek, chords:Mike Long
M:C|
L:1/8
K:G
"Em"B,EA,E "(G)"B,EGE|"D"FDA,D A,DFD|"Em"B,EA,E "C"B,EGE|"D"FDB,D "Em"E2E2|\
"Em"B,EA,E "(G)"B,EGE|
"D"FDA,D A,DFD|"D"DFAD "G"GBA^c| "D"dBAF "Em"E2 E2|]\
"Em"ebgb  f2eg |"D"fdad  bdad |
"Em"ebgb  f2ef|"D"d^cdF "Em"E2E2|\
"Em"ebgb  "(C)"f2eg|"D"fdad  bdad|"G"GAB^c dcdB|"D"AFdF "Em"E2E2|]
